X:1
T:Here Lies a Woman
M:4/4
L:1/8
K:C
 A2 AB c A3| z EE DE E2 E| F3 G C3 D| E2 E2 A A3| z EE E E3 A| AG FF E2 C2|\
 D2 E2 F4| z2 B2 c2 d2| ec cB A2 z c| cB AA ^G2 c2| A4 z AA A| ^G3 G A4|\
